X: 2
T: Quadrille Bouchard
M: 6/8
L: 1/8
R: jig
K: Dmaj
|: dfd cfc | BcB B2 A | df/e/d cfc | BcB B2 A |
ege dgd | cgc c2 B | ABA AA/B/c |[1 dcB AF/G/A :|[2 d3 dAG ||
F2 D FAd | f3 f2 c | edd dAF | G3- G2 F | 
E2 E EGB | e3- e2 B | A2 A ABc | dcB AFE |
D3 FAd | f3- f2 c | edd dAf | g3- g2 f | 
efe e2 d | cea c2 B | Ace aec | d3- d3 |]
